X:1
T:Title
%%score 1 2 3
L:1/8
M:2/2
K:C
V:1 treble nm="Part_1"
V:2 treble-8 nm="Part_2"
V:3 bass nm="Part_3"
V:1
 E8 | F8 | D8 | G8 | A8 | F8 | E8 | D6 E2 | F4 E4- | E4 D4 | E8- | E8 | z8 | G8 | A8 | c8 | A8 | %17
 G8 | A8 | F4 E4- | E2 E2 E4- | E4 C4 | D8 | F8 | G4 F4- | F2 E2 E2 D2 | !fermata!F8 | z8 | F8 | %29
 E4 F4- | F2 D2 D4- | D4 ^C4 | D8 | F8 | A8 | G8 | F8- | F4 E4- | E4 D4- | D4 ^C4 | D8 | z8 | F8 | %43
 G8 | A8 | A8 | F8 | E8 | D8 | E4 F4- | F2 E2 E4- | E4 D4 | E8- | E8 | E8 | E8 | E8 || G8 | A8 | %59
 c8 | c8 | G8 | F8 | A8 | z8 | F8 | E8 | D8 | G8 | G8 | F4 E4- | E2 D2 D4- | D4 C4 | D8 | F8 | D8 | %76
 F8 | D8 | E8 | F8 | G8- | G8 | D8 | C8 | E8 | z8 | F8 | D8 | F8 | D8 | C8 | E4 F4- | F2 E2 E4- | %93
 E4 D4 | E8 || G8 | A8 | c8 | c8 | G8 | F8 | A8 | F8 | E8 | D8 | G8 | G8 | G8 | F4 E4- | %109
 E2 D2 D4- | D4 ^C4 | D8 | z8 | F8 | D8 | F8 | D8 | E8 | F8 | G8- | G8 | D8 | C8 | E8 | z8 | F8 | %126
 D8 | F8 | D8 | C8 | E4 F4- | F2 E2 E4- | E4 D4 | E8 || G8 | A8 | c8 | c8 | G8 | F8 | A8 | z8 | %142
 F8 | E8 | D8 | G8 | G8 | G8 | F4 E4- | E2 D2 D4- | D4 C4 | D8 | z8 | F8 | D8 | F4 D4 | E8 | F8 | %158
 G8- | G8 | D8 | C8 | E8 | z8 | F8 | D8 | F8 | D8 | C8 | E4 F4- | F2 E2 E4- | E4 D4 | E8 || G8 | %174
 A8 | c8 | c8 | G8 | F8 | A8 | F4 E4- | E2 D2 D4- | D4 ^C4 | D8 | z8 | F8 | D8 | G8 | G8 | F8- | %190
 F4 E4- | E4 D4- | D4 ^C4 | D8 | z8 | F8 | D8 | F8- | F8 | E8 | F8 | G8- | G8 | D8 | C8 | E8 | z8 | %207
 F8 | D8 | F8 | D8 | C8 | E4 F4- | F2 E2 E4- | E4 D4 | E8 |] %216
V:2
[K:F] A8- | A8 | B8 | G4 c4- | c4 d4- | d4 A4- | A8 | F4 D4- | D4 E4 | F8 | C8 | z8 | c8 | e8 | %14
 f8 | e4 c4- | c4 d4 | =B4 c4- | c4 A4- | A4 G4 | A4 F4 | E8 | D8 | z4 D4 | E4 F4 | G8 | D8 | z8 | %28
 A8- | A8 | F8 | E8 | D8 | z4 d4 | c4 A4 | B4 c4 | d8 | A8 | G4 F4 | E8 | D8- | D8 | z4 d4 | e8 | %44
 c4 d4- | d2 c2 A4- | A8 | G4 A4 | B8 | c4 A4- | A2 G2 E4 | F8 | E8- | E8 | E8 | E8 | E8 || e8 | %58
 f8 | e4 c4- | c4 A4 | B4 c4 | d8 | c4 A4 | A8 | z8 | c8 | G8 | E8 | D4 C4 | D4 F4 | E8 | D8- | %73
 D8 | z4 d4- | d2 c2 B4 | A8 | B8 | c8 | A8 | G4 E4- | E2 C2 E4 | F4 G4 | A8- | A8 | A8 | D8 | %87
 z4 D4- | D4 F4- | F4 G4 | A8- | A8 | G4 E4 | F8 | E8 || e8 | f8 | e4 c4- | c4 A4 | B4 c4 | d8 | %101
 z4 A4- | A4 B4 | c8 | B4 G4- | G4 C4- | C4 c4 | =B4 G4 | A8 | G4 F4 | E8 | D8- | D8 | z4 d4- | %114
 d2 c2 B4 | B8 | B8 | c8 | A8 | G4 E4- | E2 C2 E4 | F4 G4 | A8- | A8 | A8 | A4 A4 | _B8 | A4 D4- | %128
 D2 E2 F2 G2 | A8- | A8 | G4 E4 | F8 | E8 || e8 | f8 | e4 c4- | c4 A4 | B4 c4 | d8 | z4 c4- | %141
 c4 A4- | A4 d4- | d4 c4 | d4 G4- | G4 B4- | B4 c4 | A4 d4- | d4 c4 | d8 | z4 A4 | B8 | A4 d4- | %153
 d2 A2 d4- | d2 c2 B4 | A4 B4 | c8 | A8 | G4 E4- | E2 C2 E4 | F4 G4 | A8 | z8 | A8 | A8 | _B8 | %166
 A4 F4- | F4 G4 | A8- | A8 | G4 E4 | F8 | E8 ||[K:C] e8 | f8 | e4 c4- | c4 A4 | B4 c4 | d8 | %179
 c4 A4- | A4 G4 | A4 F4 | E8 | D8- | D8 | z4 d4- | d4 B4- | B4 G4 | B4 c4 | d4 A4- | A2 F2 G4 | %191
 A4 D4 | E8 | D8- | D8 | z4 d4- | d2 c2 B4 | A4 d4- | d2 c2 A2 B2 | c8 | A8 | G4 E4- | E2 C2 E4 | %203
 F4 G4 | A8 | z8 | A8 | D4 A4 | B8 | A4 G2 F2- | F6 G2 | A8- | A8 | G4 A4 | F8 | E8 |] %216
V:3
 A,,8 | D,8 | G,8 | E,4 C,4 | F,4 D,4 | D,8 | A,,8 | z4 A,4- | A,4 G,4 | A,8 | C8 | C,8- | C,8 | %13
 C,8 | F,8 | C,8 | F,4 D,4 | E,4 C,4 | F,8 | D,4 E,4 | C,4 D,4 | A,,8 | z4 A,4 | D6 C2 | B,4 A,4 | %25
 B,4 G,4 | !fermata![A,D]8 | z8 | D,8 | A,,4 D,4- | D,8 | A,,8 | z4 A,4 | D,8 | F,8 | E,8 | D,8- | %37
 D,4 A,,4 | C,4 D,4 | A,,8 | z4 A,4- | A,4 D,4- | D,8 | C,8 | F,4 D,4 | D,8- | D,4 F,4 | C,8 | %48
 G,8 | C,4 D,4- | D,4 G,4 | A,8 | B,4 B,4- | (B,4 C4 | C4) B,4 | G,8 | B,8 || E,8 | D,8 | %59
 A,,4 A,4- | A,4 F,4 | G,4 E,4 | D,8 | F,8- | F,4 D,4- | D,4 C,4- | C,4 G,4- | G,4 E,4 | C,8 | %69
 G,4 A,4- | A,4 F,4 | D,4 A,,4- | A,,4 z4 | A,8 | D,8 | G,8 | D,8 | G,8 | C,8 | D,8 | E,4 C,4- | %81
 C,8 | D,4 B,,4 | A,,8- | A,,8 | A,,8 | A,8 | _B,4 A,4- | A,4 F,4- | F,4 _B,,4 | A,,8 | C,4 D,4 | %92
 z4 G,4 | A,8 | B,8 || E,8 | D,8 | A,,4 A,4- | A,4 F,4 | G,4 E,4 | D,8- | D,8 | D,8 | C,8 | %104
 G,6 A,2 | B,4 C4 | z4 C,4 | E,8 | D,4 A,,4 | C,4 D,4 | A,,8 | z4 A,4- | A,8 | D,8 | G,8 | D,8 | %116
 G,8 | C,8 | D,8 | E,4 C,4- | C,8 | D,4 B,,4 | A,,8- | A,,8 | A,,8 | D,8 | G,8 | D,8 | _B,,8 | %129
 A,,8 | z4 A,4 | B,4 C4 | A,8 | B,8 || E,8 | D,8 | A,,4 A,4- | A,4 F,4 | G,4 E,4 | D,8 | F,8- | %141
 F,8 | D,8 | A,8 | _B,8- | B,4 G,4- | G,4 C,4 | D,8 | A,,8 | D,8- | D,8 | G,8 | D,8- | D,8 | G,8 | %155
 D,8 | C,8 | D,8 | E,4 C,4 | C,8 | D,4 B,,4 | A,,8 | A,,8- | A,,8 | D,8 | G,8 | D,8 | _B,,8 | %168
 A,,6 B,,2 | C,4 D,4 | z4 G,4 | A,8 | B,8 || E,8 | D,8 | A,,4 A,4- | A,4 F,4 | E,8 | D,8 | %179
 A,,4 D,4- | D,4 E,4 | C,4 D,4 | A,,8 | z4 A,4- | A,8 | D,8 | G,8 | E,8- | E,8 | D,8- | D,4 E,4 | %191
 C,4 D,4 | A,,8 | z4 A,4- | A,2 F,4 D,2 | D,8 | G,8 | D,8- | D,8 | C,8 | D,8 | E,4 C,4- | C,8 | %203
 D,4 B,,4 | A,,8- | A,,8 | A,,8 | A,4 D,4 | G,8 | D,8 | _B,,8 | A,,8 | C,4 D,4 | E,4 A,,4 | A,8 | %215
 B,8 |] %216

